img/manaSymbols/wanted/wanted8.svg

<?xml version="1.0" encoding="UTF-8" standalone="no"?>
<svg
   width="714"
   height="714"
   viewBox="0 0 714 714"
   version="1.1"
   xml:space="preserve"
   style="fill-rule:evenodd;clip-rule:evenodd;stroke-linejoin:round;stroke-miterlimit:2;"
   id="svg2"
   sodipodi:docname="wanted8.svg"
   inkscape:version="1.3.2 (091e20e, 2023-11-25, custom)"
   xmlns:inkscape="http://www.inkscape.org/namespaces/inkscape"
   xmlns:sodipodi="http://sodipodi.sourceforge.net/DTD/sodipodi-0.dtd"
   xmlns="http://www.w3.org/2000/svg"
   xmlns:svg="http://www.w3.org/2000/svg"><defs
   id="defs2" /><sodipodi:namedview
   id="namedview2"
   pagecolor="#ffffff"
   bordercolor="#000000"
   borderopacity="0.25"
   inkscape:showpageshadow="2"
   inkscape:pageopacity="0.0"
   inkscape:pagecheckerboard="0"
   inkscape:deskcolor="#d1d1d1"
   inkscape:zoom="1.1386555"
   inkscape:cx="357"
   inkscape:cy="357"
   inkscape:window-width="3440"
   inkscape:window-height="1369"
   inkscape:window-x="1912"
   inkscape:window-y="482"
   inkscape:window-maximized="1"
   inkscape:current-layer="svg2" />
    <g
   transform="matrix(1,0,0,1,57,57)"
   id="g1">
        <circle
   cx="300"
   cy="300"
   r="300"
   style="fill:#d6b793;fill-opacity:1"
   id="circle1" />
        <path
   d="M300,-57C102.966,-57 -57,102.966 -57,300C-57,497.034 102.966,657 300,657C497.034,657 657,497.034 657,300C657,102.966 497.034,-57 300,-57ZM300,0C465.575,0 600,134.425 600,300C600,465.575 465.575,600 300,600C134.425,600 0,465.575 0,300C0,134.425 134.425,0 300,0Z"
   style="fill:#594c42;fill-opacity:1"
   id="path1" />
    </g>
    <g
   id="path24"
   transform="matrix(1,0,0,1,57,57)"
   style="fill:#000000">
        <path
   d="M308,493C335,493 393,475 393,422C393,386 367,352 275,314C228,344 214,376 214,403C214,465 263,493 307,493M379,179C379,143 349,106 299,106C250,106 226,139 226,164C226,210 263,223 325,253C341,245 378.98,227.184 378.98,180.184L379,179ZM309,533C218,533 147,482 147,408C147,335 233,293 233,293C212,280 157,248 157,187C157,88 256,63 307,63C415,63 445,151 445,174C445,224 400,259 370,272C370,272 454,305 454,401C454,488 371,533 309,533"
   style="fill:#000000;fill-rule:nonzero"
   id="path2" />
    </g>
</svg>

﻿<?xml version="1.0" encoding="utf-8"?>
<svg width="714" height="714" viewBox="0 0 714 714" version="1.1" xml:space="preserve" style="fill-rule: evenodd; clip-rule: evenodd; stroke-linejoin: round; stroke-miterlimit: 2;" id="svg2" sodipodi:docname="wanted8.svg" inkscape:version="1.3.2 (091e20e, 2023-11-25, custom)" xmlns:inkscape="http://www.inkscape.org/namespaces/inkscape" xmlns:sodipodi="http://sodipodi.sourceforge.net/DTD/sodipodi-0.dtd" xmlns="http://www.w3.org/2000/svg">
  <sodipodi:namedview id="namedview2" pagecolor="#ffffff" bordercolor="#000000" borderopacity="0.25" inkscape:showpageshadow="2" inkscape:pageopacity="0.0" inkscape:pagecheckerboard="0" inkscape:deskcolor="#d1d1d1" inkscape:zoom="1.1386555" inkscape:cx="357" inkscape:cy="357" inkscape:window-width="3440" inkscape:window-height="1369" inkscape:window-x="1912" inkscape:window-y="482" inkscape:window-maximized="1" inkscape:current-layer="svg2" />
  <g transform="matrix(1,0,0,1,57,57)" id="g1">
    <circle cx="300" cy="300" r="300" style="fill: rgb(214, 183, 147); fill-opacity: 1;" id="circle1" />
    <path d="M300-57C102.966-57-57 102.966-57 300s159.966 357 357 357 357-159.966 357-357S497.034-57 300-57zm0 57c165.575 0 300 134.425 300 300S465.575 600 300 600 0 465.575 0 300 134.425 0 300 0z" style="fill: rgb(89, 76, 66); fill-opacity: 1;" id="path1" />
  </g>
  <g id="path24" transform="matrix(1,0,0,1,57,57)" style="fill: rgb(0, 0, 0);">
    <path d="M308 493c27 0 85-18 85-71 0-36-26-70-118-108-47 30-61 62-61 89 0 62 49 90 93 90m72-314c0-36-30-73-80-73-49 0-73 33-73 58 0 46 37 59 99 89 16-8 53.98-25.816 53.98-72.816L379 179zm-70 354c-91 0-162-51-162-125 0-73 86-115 86-115-21-13-76-45-76-106 0-99 99-124 150-124 108 0 138 88 138 111 0 50-45 85-75 98 0 0 84 33 84 129 0 87-83 132-145 132" style="fill: rgb(0, 0, 0); fill-rule: nonzero;" id="path2" />
  </g>
</svg>
